assets/Avatars/Male4.svg

<svg xmlns="http://www.w3.org/2000/svg" viewBox="0 0 153.41 155.01" xmlns:v="https://vecta.io/nano"><style><![CDATA[.B{isolation:isolate}.K{mix-blend-mode:multiply}.L{fill:#f1b69a}.M{fill:#d76a40}.N{stroke:#e07e61}.O{stroke-linecap:round}.P{stroke-miterlimit:10}]]></style><defs><clipPath id="A"><circle cx="76.71" cy="76.71" r="76.71" transform="matrix(.164015 -.986458 .986458 .164015 -11.55 139.79)" fill="none"/></clipPath></defs><g class="B"><circle cx="76.71" cy="76.71" r="76.71" transform="matrix(.164015 -.986458 .986458 .164015 -11.55 139.79)" fill="#f4e6e1"/><g clip-path="url(#A)"><path d="M107.12 62.63c.62-8.56 7.13-32.34-6.91-30.73-1.82-12.38-13.42-18.65-24.61-18.08-30.32 1.55-35 29.25-30.26 48.81 7.69 20.49 47.24 4.47 61.78 0z" class="M"/><path d="M143.52 155H9.89s4-22.42 13.24-35.32 43.27-17.6 43.27-17.6l10.31 1.59L87 102.08s34.1 4.7 43.29 17.61S143.52 155 143.52 155z" fill="#5b4850"/><path d="M58.48 103a60.61 60.61 0 0 1 18.05-1.36h0a60.61 60.61 0 0 1 18 1.36c.86 8.13-2.49 18.37-17.88 18.41-15.53.09-19.05-10.14-18.17-18.41z" fill="#fff"/><path d="M76.48 113.46h0a9.05 9.05 0 0 1-9-9V87.11h18.06v17.3a9.06 9.06 0 0 1-9.06 9.05z" class="L"/><path d="M85.54,86.1V96.72s-3,5.28-9.06,5.28c-4.83,0-9-4.58-9-4.58V86.1Z" fill="#150a08"/><path d="M51.16 66.53c-4.9-7.44-10.58-2.66-10.58 2.57 0 7.58 8.23 14.11 12.93 8.67s-2.35-11.24-2.35-11.24z" class="L"/><path d="M50.09,70c-3.05-5.69-7.26-.38-5.65,1.73" fill="none" class="N O P"/><path d="M100.06 66.53c4.89-7.44 10.57-2.66 10.57 2.57 0 7.58-8.22 14.11-12.92 8.67s2.35-11.24 2.35-11.24z" class="L"/><path d="M101.13,70c3-5.69,7.25-.38,5.65,1.73" fill="none" class="N O P"/><path d="M75.58 95.73c-19.34 0-30.78-21.15-26.26-42.85 3.73-17.88 48.84-17.88 52.57 0 4.52 21.7-6.95 42.86-26.31 42.85z" class="L"/><path d="M104.13,60s-.25,19.48-7.52,28.59-20.13,9.7-20.13,9.7-14.41-.59-21.67-9.7S47.29,60,47.29,60l1-2c.73,5.22,4.15,18.75,8.26,21.74,6.72-2.25,11.76-2.5,19.44-2.5a132,132,0,0,1,19.15,1.6c3.3-2.91,7.3-16.09,8-20.84Z" class="M"/><path class="K L" d="M73,74c2,1,6.48-1.15,6.57,0s-2.38,2.18-3.28,2.18S73,74,73,74Z" opacity=".5"/><path d="M73.08,68.17c-2.82,6.1,1.4,7.29,2.53,7.43" fill="none" class="N O P"/><path d="M68.57 79.78c7.4.8 12.35 0 15.87.1 0 0-4.44 6.27-9.65 5s-6.22-5.1-6.22-5.1z" fill="#fff"/><g class="M"><path d="M68 51.54c-1.21-2.7-8.29-1.46-9.3.46s2.32 2.46 4.78 2.34 5.25-1.08 4.52-2.8zm15.26 0c1.2-2.7 8.29-1.46 9.29.46s-2.31 2.46-4.77 2.34-5.29-1.08-4.52-2.8z"/></g><path class="K L" d="M73.69 86.72c2.71 0 6.59-1.4 7.19 0s-2.7 4.21-4.76 4-5.52-4.01-2.43-4z" opacity=".5"/><g fill="#150a08"><path d="M62.84 61.94a1.95 1.95 0 1 0 2-1.94 1.95 1.95 0 0 0-2 1.94z"/><circle cx="86.43" cy="61.94" r="1.95"/></g><path d="M60.79,39.81l4.5-1.09S59.42,48.14,71.93,50s25.53-6.66,15.14-11l3.78-.25-9.09-7Z" class="M"/></g></g></svg>

<svg xmlns="http://www.w3.org/2000/svg" xmlns:xlink="http://www.w3.org/1999/xlink" viewBox="0 0 153.41 155.01"><defs><style>.cls-1,.cls-10{fill:none;}.cls-2{isolation:isolate;}.cls-3{fill:#f4e6e1;}.cls-4{clip-path:url(#clip-path);}.cls-5{fill:#d76a40;}.cls-6{fill:#5b4850;}.cls-7{fill:#fff;}.cls-11,.cls-8{fill:#f1b69a;}.cls-9{fill:#150a08;}.cls-10{stroke:#e07e61;stroke-linecap:round;stroke-miterlimit:10;}.cls-11{mix-blend-mode:multiply;opacity:0.5;}</style><clipPath id="clip-path"><circle class="cls-1" cx="76.71" cy="76.71" r="76.71" transform="translate(-11.55 139.79) rotate(-80.56)"/></clipPath></defs><g class="cls-2"><g id="Layer_2" data-name="Layer 2"><g id="OBJECTS"><circle class="cls-3" cx="76.71" cy="76.71" r="76.71" transform="translate(-11.55 139.79) rotate(-80.56)"/><g class="cls-4"><path class="cls-5" d="M107.12,62.63c.62-8.56,7.13-32.34-6.91-30.73C98.39,19.52,86.79,13.25,75.6,13.82c-30.32,1.55-35,29.25-30.26,48.81,7.69,20.49,47.24,4.47,61.78,0Z"/><path class="cls-6" d="M143.52,155H9.89s4-22.42,13.24-35.32S66.4,102.08,66.4,102.08l10.31,1.59L87,102.08s34.1,4.7,43.29,17.61S143.52,155,143.52,155Z"/><path class="cls-7" d="M58.48,103a60.61,60.61,0,0,1,18.05-1.36h0a60.61,60.61,0,0,1,18,1.36c.86,8.13-2.49,18.37-17.88,18.41C61.12,121.5,57.6,111.27,58.48,103Z"/><path class="cls-8" d="M76.48,113.46h0a9.05,9.05,0,0,1-9-9V87.11H85.54v17.3A9.06,9.06,0,0,1,76.48,113.46Z"/><path class="cls-9" d="M85.54,86.1V96.72s-3,5.28-9.06,5.28c-4.83,0-9-4.58-9-4.58V86.1Z"/><path class="cls-8" d="M51.16,66.53c-4.9-7.44-10.58-2.66-10.58,2.57,0,7.58,8.23,14.11,12.93,8.67S51.16,66.53,51.16,66.53Z"/><path class="cls-10" d="M50.09,70c-3.05-5.69-7.26-.38-5.65,1.73"/><path class="cls-8" d="M100.06,66.53c4.89-7.44,10.57-2.66,10.57,2.57,0,7.58-8.22,14.11-12.92,8.67S100.06,66.53,100.06,66.53Z"/><path class="cls-10" d="M101.13,70c3-5.69,7.25-.38,5.65,1.73"/><path class="cls-8" d="M75.58,95.73c-19.34,0-30.78-21.15-26.26-42.85C53.05,35,98.16,35,101.89,52.88,106.41,74.58,94.94,95.74,75.58,95.73Z"/><path class="cls-5" d="M104.13,60s-.25,19.48-7.52,28.59-20.13,9.7-20.13,9.7-14.41-.59-21.67-9.7S47.29,60,47.29,60l1-2c.73,5.22,4.15,18.75,8.26,21.74,6.72-2.25,11.76-2.5,19.44-2.5a132,132,0,0,1,19.15,1.6c3.3-2.91,7.3-16.09,8-20.84Z"/><path class="cls-11" d="M73,74c2,1,6.48-1.15,6.57,0s-2.38,2.18-3.28,2.18S73,74,73,74Z"/><path class="cls-10" d="M73.08,68.17c-2.82,6.1,1.4,7.29,2.53,7.43"/><path class="cls-7" d="M68.57,79.78c7.4.8,12.35,0,15.87.1,0,0-4.44,6.27-9.65,5S68.57,79.78,68.57,79.78Z"/><path class="cls-5" d="M68,51.54c-1.21-2.7-8.29-1.46-9.3.46s2.32,2.46,4.78,2.34S68.73,53.26,68,51.54Z"/><path class="cls-5" d="M83.26,51.54c1.2-2.7,8.29-1.46,9.29.46s-2.31,2.46-4.77,2.34S82.49,53.26,83.26,51.54Z"/><path class="cls-11" d="M73.69,86.72c2.71,0,6.59-1.4,7.19,0s-2.7,4.21-4.76,4S70.6,86.71,73.69,86.72Z"/><path class="cls-9" d="M62.84,61.94a1.95,1.95,0,1,0,2-1.94A1.95,1.95,0,0,0,62.84,61.94Z"/><circle class="cls-9" cx="86.43" cy="61.94" r="1.95"/><path class="cls-5" d="M60.79,39.81l4.5-1.09S59.42,48.14,71.93,50s25.53-6.66,15.14-11l3.78-.25-9.09-7Z"/></g></g></g></g></svg>
